packages/core/src/svgs/wallets/mono/xdefi.svg

<svg width="24" height="24" viewBox="0 0 24 24" fill="none" xmlns="http://www.w3.org/2000/svg">
<path d="M13.9925 13.2268C12.4454 14.173 10.3746 14.6602 8.27736 14.5561C6.51404 14.471 5.06785 13.8465 4.1934 12.82C3.42466 11.9022 3.12677 10.6911 3.32856 9.29789C3.39695 8.83487 3.53712 8.38497 3.74416 7.96383L3.77299 7.90471C4.49883 6.52878 5.57602 5.36266 6.89853 4.52111C8.22107 3.67955 9.74334 3.19157 11.3156 3.10518C12.8878 3.01879 14.4558 3.33697 15.8652 4.0284C17.2746 4.71984 18.4769 5.76071 19.3537 7.04854C20.2305 8.33639 20.7517 9.82685 20.8658 11.3732C20.98 12.9196 20.6833 14.4686 20.0048 15.8678C19.3263 17.2669 18.2896 18.4681 16.9966 19.3529C15.7035 20.2378 14.1987 20.7759 12.6304 20.9143L12.7265 22C14.4874 21.8455 16.177 21.2421 17.629 20.2491C19.081 19.2561 20.2452 17.9077 21.0069 16.3369C21.7686 14.766 22.1015 13.0269 21.9729 11.2909C21.8443 9.5548 21.2586 7.88166 20.2735 6.43629C19.2883 4.99091 17.9377 3.82317 16.3548 3.0481C14.7719 2.27303 13.0112 1.91736 11.2461 2.01615C9.48112 2.11494 7.77267 2.66476 6.28912 3.61146C4.80556 4.55816 3.59808 5.86906 2.78564 7.41504L2.7472 7.49311C2.49036 8.01571 2.31695 8.57421 2.2331 9.14888C1.99287 10.8472 2.36523 12.3587 3.33817 13.5225C4.4024 14.795 6.13447 15.552 8.21248 15.6513C10.7421 15.7767 13.2574 15.0978 15.0423 13.8489L13.9925 13.2268Z" fill="white"/>
<path d="M16.1089 14.4614C15.1023 15.3224 12.7624 16.8836 8.88025 17.0965C4.53446 17.333 2.7231 15.9422 2.70628 15.928L2.35554 16.3537L2.70869 15.9351L2 16.7724C2.07687 16.8363 3.81375 18.2177 7.89291 18.2177C8.22681 18.2177 8.57756 18.2177 8.94271 18.1893C13.6345 17.9314 16.2121 15.9161 17.1106 15.0552L16.1089 14.4614Z" fill="white"/>
<path d="M17.9927 15.5876C17.3975 16.3579 16.6648 17.0152 15.8306 17.5272C12.8901 19.3959 9.14975 19.6371 6.53119 19.507L6.47595 20.5975C6.91556 20.6188 7.33838 20.6282 7.7492 20.6282C15.1339 20.6282 18.1176 17.3167 18.9512 16.134L17.9903 15.5781" fill="white"/>
<path d="M17.7114 11.4586C18.201 11.4586 18.5978 11.0679 18.5978 10.5859C18.5978 10.1039 18.201 9.71313 17.7114 9.71313C17.2219 9.71313 16.8251 10.1039 16.8251 10.5859C16.8251 11.0679 17.2219 11.4586 17.7114 11.4586Z" fill="white"/>
</svg>

<svg xmlns="http://www.w3.org/2000/svg" width="24" height="24" fill="none" viewBox="0 0 24 24">
    <path fill="#fff" d="M13.993 13.227c-1.548.946-3.618 1.433-5.716 1.33-1.763-.086-3.21-.71-4.084-1.737-.768-.918-1.066-2.129-.864-3.522a4.5 4.5 0 0 1 .415-1.334l.029-.06a9 9 0 0 1 3.126-3.383 9.19 9.19 0 0 1 8.967-.493 9 9 0 0 1 3.488 3.02 8.81 8.81 0 0 1 .651 8.82 8.97 8.97 0 0 1-3.008 3.485 9.16 9.16 0 0 1-4.367 1.561L12.726 22a10.3 10.3 0 0 0 4.903-1.75 10.06 10.06 0 0 0 3.378-3.913 9.89 9.89 0 0 0-.734-9.9 10.13 10.13 0 0 0-3.918-3.389 10.31 10.31 0 0 0-10.066.563 10.1 10.1 0 0 0-3.503 3.804l-.039.078a5.6 5.6 0 0 0-.514 1.656c-.24 1.698.132 3.21 1.105 4.374 1.064 1.272 2.796 2.029 4.874 2.128 2.53.126 5.045-.553 6.83-1.802z"/>
    <path fill="#fff" d="M16.109 14.461c-1.007.861-3.347 2.423-7.229 2.635-4.346.237-6.157-1.154-6.174-1.168l-.35.426.353-.419-.709.837c.077.064 1.814 1.446 5.893 1.446.334 0 .685 0 1.05-.029 4.692-.258 7.27-2.273 8.168-3.134z"/>
    <path fill="#fff" d="M17.993 15.588a8 8 0 0 1-2.162 1.94c-2.94 1.868-6.681 2.11-9.3 1.979l-.055 1.09q.658.032 1.273.031c7.385 0 10.369-3.311 11.202-4.494l-.96-.556m-.28-4.119a.88.88 0 0 0 .887-.873.88.88 0 0 0-.887-.873.88.88 0 0 0-.886.873.88.88 0 0 0 .886.873"/>
</svg>
